src/assets/bots/polaris.svg

<?xml version="1.0" encoding="UTF-8"?>
<svg width="256mm" height="256mm" version="1.1" viewBox="0 0 256 256" xml:space="preserve" xmlns="http://www.w3.org/2000/svg"><g fill="#00ff80"><circle cx="128" cy="128" r="123.11" fill-opacity=".2" stroke="#00ff80" stroke-linecap="square" stroke-linejoin="round" stroke-miterlimit="200" stroke-width="9.774" style="paint-order:normal"/><g transform="matrix(5.0932 0 0 5.0932 42.143 39.067)"><path d="m34.347 16.893-8.899-3.294-3.323-10.891c-0.128-0.42-0.517-0.708-0.956-0.708s-0.828 0.288-0.956 0.708l-3.322 10.891-8.9 3.294c-0.393 0.146-0.653 0.519-0.653 0.938 0 0.418 0.26 0.793 0.653 0.938l8.895 3.293 3.324 11.223c0.126 0.424 0.516 0.715 0.959 0.715 0.442 0 0.833-0.291 0.959-0.716l3.324-11.223 8.896-3.293c0.391-0.144 0.652-0.518 0.652-0.937 0-0.418-0.261-0.792-0.653-0.938z"/><path d="m14.347 27.894-2.314-0.856-0.9-3.3c-0.118-0.436-0.513-0.738-0.964-0.738s-0.846 0.302-0.965 0.737l-0.9 3.3-2.313 0.856c-0.393 0.145-0.653 0.52-0.653 0.938s0.26 0.793 0.653 0.938l2.301 0.853 0.907 3.622c0.112 0.444 0.511 0.756 0.97 0.756s0.858-0.312 0.97-0.757l0.907-3.622 2.301-0.853c0.393-0.144 0.653-0.519 0.653-0.937s-0.26-0.793-0.653-0.937zm-4.338-21.663-2.364-0.875-0.876-2.365c-0.145-0.393-0.519-0.653-0.938-0.653-0.418 0-0.792 0.26-0.938 0.653l-0.875 2.365-2.365 0.875c-0.393 0.146-0.653 0.52-0.653 0.938s0.26 0.793 0.653 0.938l2.365 0.875 0.875 2.365c0.146 0.393 0.52 0.653 0.938 0.653s0.792-0.26 0.938-0.653l0.875-2.365 2.365-0.875c0.393-0.146 0.653-0.52 0.653-0.938s-0.26-0.792-0.653-0.938z"/></g></g></svg>

<?xml version="1.0" encoding="UTF-8" standalone="no"?>
<!-- Created with Inkscape (http://www.inkscape.org/) -->

<svg
   width="256mm"
   height="256mm"
   viewBox="0 0 256 256"
   version="1.1"
   id="svg5"
   xml:space="preserve"
   inkscape:version="1.2.1 (9c6d41e410, 2022-07-14)"
   sodipodi:docname="zoo.svg"
   inkscape:export-filename="zoo.png"
   inkscape:export-xdpi="50.799999"
   inkscape:export-ydpi="50.799999"
   xmlns:inkscape="http://www.inkscape.org/namespaces/inkscape"
   xmlns:sodipodi="http://sodipodi.sourceforge.net/DTD/sodipodi-0.dtd"
   xmlns="http://www.w3.org/2000/svg"
   xmlns:svg="http://www.w3.org/2000/svg"><sodipodi:namedview
     id="namedview7"
     pagecolor="#505050"
     bordercolor="#ffffff"
     borderopacity="1"
     inkscape:showpageshadow="0"
     inkscape:pageopacity="0"
     inkscape:pagecheckerboard="1"
     inkscape:deskcolor="#505050"
     inkscape:document-units="mm"
     showgrid="false"
     inkscape:zoom="0.914906"
     inkscape:cx="167.23029"
     inkscape:cy="383.64597"
     inkscape:window-width="2560"
     inkscape:window-height="1346"
     inkscape:window-x="-11"
     inkscape:window-y="-11"
     inkscape:window-maximized="1"
     inkscape:current-layer="layer1" /><defs
     id="defs2" /><g
     inkscape:label="Layer 1"
     inkscape:groupmode="layer"
     id="layer1"><circle
       style="fill:#00ff80;fill-opacity:0.2;stroke:#00ff80;stroke-width:9.774;stroke-linecap:square;stroke-linejoin:round;stroke-miterlimit:200;stroke-dasharray:none;stroke-opacity:1;paint-order:normal"
       id="path705"
       cx="128"
       cy="128"
       r="123.11324" /><g
       id="g3791"
       transform="matrix(5.0932103,0,0,5.0932103,42.143052,39.067279)"
       style="fill:#00ff80;fill-opacity:1"><path
         fill="#ffac33"
         d="M 34.347,16.893 25.448,13.599 22.125,2.708 C 21.997,2.288 21.608,2 21.169,2 20.73,2 20.341,2.288 20.213,2.708 l -3.322,10.891 -8.9,3.294 c -0.393,0.146 -0.653,0.519 -0.653,0.938 0,0.418 0.26,0.793 0.653,0.938 l 8.895,3.293 3.324,11.223 c 0.126,0.424 0.516,0.715 0.959,0.715 0.442,0 0.833,-0.291 0.959,-0.716 l 3.324,-11.223 8.896,-3.293 C 34.739,18.624 35,18.25 35,17.831 35,17.413 34.739,17.039 34.347,16.893 Z"
         id="path3779"
         style="fill:#00ff80;fill-opacity:1" /><path
         fill="#ffcc4d"
         d="m 14.347,27.894 -2.314,-0.856 -0.9,-3.3 C 11.015,23.302 10.62,23 10.169,23 9.718,23 9.323,23.302 9.204,23.737 l -0.9,3.3 -2.313,0.856 c -0.393,0.145 -0.653,0.52 -0.653,0.938 0,0.418 0.26,0.793 0.653,0.938 l 2.301,0.853 0.907,3.622 C 9.311,34.688 9.71,35 10.169,35 c 0.459,0 0.858,-0.312 0.97,-0.757 l 0.907,-3.622 2.301,-0.853 C 14.74,29.624 15,29.249 15,28.831 15,28.413 14.74,28.038 14.347,27.894 Z M 10.009,6.231 7.645,5.356 6.769,2.991 C 6.624,2.598 6.25,2.338 5.831,2.338 5.413,2.338 5.039,2.598 4.893,2.991 L 4.018,5.356 1.653,6.231 C 1.26,6.377 1,6.751 1,7.169 1,7.587 1.26,7.962 1.653,8.107 l 2.365,0.875 0.875,2.365 C 5.039,11.74 5.413,12 5.831,12 6.249,12 6.623,11.74 6.769,11.347 L 7.644,8.982 10.009,8.107 c 0.393,-0.146 0.653,-0.52 0.653,-0.938 0,-0.418 -0.26,-0.792 -0.653,-0.938 z"
         id="path3781"
         style="fill:#00ff80;fill-opacity:1" /></g></g></svg>
